X: 060855
T: Father Kelly's "#3"
S: "First Collection of Traditional Irish Music" (M.Mulvihill)
Z: B.Black
L: 1/8
M: 4/4
R: reel
K: G
Bc|dG (3GFG dGBd|cF (3FEF cFAc|dG (3GGG dGBG|BdcA G2 Bc|
dG (3GFG dGBd|cF (3FEF cFAc|dG (3GGG dGBG|BdcA G2 :|
Bc|dggf agfe|fdcB AFAc|dg (3gfg ag (3gfg|\
df (3fef df (3fef|
dg (3gfg a2 ge|fdcB AFAc|dG (3GFG dGBG|BdcA G2 :|
